X: 30061
T: Oh As I Was Kissed Yest'reen
R: jig
M: 6/8
K: Adorian
|:ABA ABd|egB A2c|BAB GAG|BAB GAB|
cBc dcd|ede a2g|edB ABd|1 e2A A2 E:|2 e2A A2^g||
|:a2A ABA|a2A A2f|g2G GAG|BAB GAB|
cBc dcd|ede a2g|edB ABd|1 e2A A2^g:|2 e2A A2E||

